img/info/03/04.svg

<svg width="92" height="92" viewBox="0 0 92 92" fill="none" xmlns="http://www.w3.org/2000/svg">
<rect x="1" y="1" width="90" height="90" rx="10" fill="url(#paint0_linear_396_88547)" stroke="#343434" stroke-width="2"/>
<path d="M46.3335 62.3267H71.199C71.7513 62.3267 72.199 61.8789 72.199 61.3267V30.1718C72.199 29.6195 71.7513 29.1718 71.199 29.1718H21.4679C20.9156 29.1718 20.4679 29.6195 20.4679 30.1718V61.3267C20.4679 61.8789 20.9156 62.3267 21.4679 62.3267H46.3335ZM46.3335 62.3267V69.2339M46.3335 69.2339C44.7276 69.2339 43.4258 70.5247 43.4258 72.117C43.4258 73.7092 44.7276 75 46.3335 75C47.9393 75 49.2411 73.7092 49.2411 72.117C49.2411 70.5247 47.9393 69.2339 46.3335 69.2339ZM66.2627 45.6291C66.2627 51.6664 61.3268 56.5606 55.238 56.5606C52.1842 56.5606 49.4203 55.3294 47.4238 53.3404M66.2627 45.6291C66.2627 39.5918 61.3268 34.6976 55.238 34.6976M66.2627 45.6291H55.238M55.238 34.6976C49.1492 34.6976 44.2133 39.5918 44.2133 45.6291C44.2133 48.6384 45.4396 51.3636 47.4238 53.3404M55.238 34.6976V45.6291M47.4238 53.3404L55.238 45.6291M26.4042 34.9378H39.0039M26.4042 40.5838H39.0039M26.4042 46.3498H39.0039M26.4042 52.1159H39.0039M56.6918 22.9252L55.6675 18.7611C55.5576 18.3142 55.1567 18 54.6965 18H38.3339C37.8736 18 37.4728 18.3142 37.3628 18.7611L36.3386 22.9252M20.1044 29.1718H72.5625C73.633 29.1718 74.5009 28.3112 74.5009 27.2497V23.9252C74.5009 23.3729 74.0532 22.9252 73.5009 22.9252H19.166C18.6137 22.9252 18.166 23.3729 18.166 23.9252V27.2497C18.166 28.3112 19.0339 29.1718 20.1044 29.1718Z" stroke="white" stroke-width="1.5" stroke-linecap="round"/>
<defs>
<linearGradient id="paint0_linear_396_88547" x1="102.574" y1="103.026" x2="-17.2231" y2="1.35878" gradientUnits="userSpaceOnUse">
<stop offset="0.10199" stop-color="#26262B"/>
<stop offset="0.985" stop-color="#1D1B1E"/>
</linearGradient>
</defs>
</svg>

<svg xmlns="http://www.w3.org/2000/svg" width="92" height="92" fill="none"><rect width="90" height="90" x="1" y="1" fill="url(#a)" stroke="#343434" stroke-width="2" rx="10"/><path stroke="#fff" stroke-linecap="round" stroke-width="1.5" d="M46.334 62.327h24.865a1 1 0 0 0 1-1V30.172a1 1 0 0 0-1-1H21.468a1 1 0 0 0-1 1v31.155a1 1 0 0 0 1 1h24.866Zm0 0v6.907m0 0c-1.606 0-2.908 1.29-2.908 2.883 0 1.592 1.302 2.883 2.907 2.883 1.606 0 2.908-1.29 2.908-2.883 0-1.592-1.302-2.883-2.907-2.883Zm19.929-23.605c0 6.037-4.936 10.932-11.025 10.932a11.038 11.038 0 0 1-7.814-3.22m18.839-7.712c0-6.037-4.936-10.931-11.025-10.931m11.025 10.931H55.238m0-10.931c-6.089 0-11.025 4.894-11.025 10.931a10.85 10.85 0 0 0 3.21 7.711m7.815-18.642v10.931m-7.814 7.711 7.814-7.71M26.404 34.937h12.6m-12.6 5.646h12.6m-12.6 5.766h12.6m-12.6 5.766h12.6m17.688-29.19-1.025-4.165a1 1 0 0 0-.97-.761H38.334a1 1 0 0 0-.971.761l-1.024 4.164m-16.235 6.247h52.459A1.93 1.93 0 0 0 74.5 27.25v-3.325a1 1 0 0 0-1-1H19.166a1 1 0 0 0-1 1v3.325a1.93 1.93 0 0 0 1.938 1.922Z"/><defs><linearGradient id="a" x1="102.574" x2="-17.223" y1="103.026" y2="1.359" gradientUnits="userSpaceOnUse"><stop offset=".102" stop-color="#26262B"/><stop offset=".985" stop-color="#1D1B1E"/></linearGradient></defs></svg>
